X: 24534
T: Luggelaw
R: waltz
M: 3/4
K: Dmajor
d/e/ ff|e>f gabb|a>f defa|a2fd e>d|
d3d/e/ ff|e>f gabb|a>f defa|a2fd e>d|
d3A A>B|B2d2c>B|GBA2 Bc/d/|F2 gfed|e3 fge|
e>f gabb|a>f defa|a2fd e>d|d3||

